X: 26
T:May Day (Miss McLeod's Reel)
% Nottingham Music Database
S:F1/24, via EF
M:4/4
L:1/4
K:G
P:A
[B/2d/2][A/2d/2]|:"G"[GB][gb] "C"[e/2g/2][d/2f/2][e/2g/2][g/2c'/2]|"G"[Bd][B/2d/2][A/2c/2] "D7"[B/2d/2][c/2d/2][B/2d/2][A/2c/2]|\
"G"[GB][gb] "C"[e/2g/2][d/2f/2][e/2g/2][g/2c'/2]|"Am"[Ac][A/2c/2][G/2B/2] "D7"[A/2c/2][c/2d/2][B/2d/2][A/2c/2]|
"G"[GB][gb] "C"[e/2g/2][d/2f/2][e/2g/2][g/2c'/2]|"G"[B/2d/2][c/2e/2][B/2d/2][A/2c/2] [Bd][dg]|"C"[e/2g/2][f/2a/2][e/2g/2][d/2f/2] [B/2d/2][d/2f/2][e/2g/2][f/2a/2]|\
"Em"[g/2b/2][e/2g/2][d/2f/2][B/2e/2] "D7"[A/2c/2][c/2d/2][B/2d/2][A/2c/2]:|
P:B
"G"[G/2B/2][A/2c/2][B/2d/2][c/2e/2] [d/2g/2][B/2d/2][G/2B/2][A/2c/2]|"G"[Bd][B/2d/2][A/2c/2] "D7"[B/2d/2][c/2d/2][B/2d/2][A/2c/2]|\
"G"[G/2B/2][A/2c/2][B/2d/2][c/2e/2] [d/2g/2][B/2d/2][G/2B/2][B/2d/2]|"Am"[Ac][A/2c/2][G/2B/2] "D7"[A/2c/2][c/2d/2][B/2d/2][A/2c/2]|
"G"[G/2B/2][A/2c/2][B/2d/2][c/2e/2] [d/2g/2][B/2d/2][G/2B/2][A/2c/2]|"G"[B/2d/2][c/2e/2][B/2d/2][A/2c/2] [Bd][dg]|"C"[e/2g/2][f/2a/2][e/2g/2][d/2f/2] [B/2d/2][d/2f/2][e/2g/2][f/2a/2]|\
"Em"[g/2b/2][e/2g/2][d/2f/2][B/2e/2] "D7"[A/2c/2][c/2d/2][B/2d/2][A/2c/2]:|
P:B alt
"G"[GB][B/2d/2][G/2B/2] [D/2G/2][G/2B/2][B/2d/2][G/2B/2]|"G"[Bd][B/2d/2][A/2c/2] "D7"[B/2d/2][c/2d/2][B/2d/2][A/2c/2]|"G"[GB][B/2d/2][G/2B/2] [d/2g/2][G/2B/2][B/2d/2][G/2B/2]|\
"Am"[A/2c/2][B/2d/2][A/2c/2][G/2B/2] "D7"[A/2c/2][c/2d/2][B/2d/2][A/2c/2]|
"G"[GB][B/2d/2][G/2B/2] [D/2G/2][G/2B/2][B/2d/2][G/2B/2]|"G"[B/2d/2][c/2e/2][B/2d/2][A/2c/2] [Bd][dg]|"C"[e/2g/2][f/2a/2][e/2g/2][d/2f/2] [B/2d/2][d/2f/2][e/2g/2][f/2a/2]|\
"Em"[g/2b/2][e/2g/2][d/2f/2][B/2e/2] "D7"[A/2c/2][c/2d/2][B/2d/2][A/2c/2]:|


